icons/lines/kyber-network--knc-.svg

<svg xmlns="http://www.w3.org/2000/svg" width="24" height="24" viewBox="0 0 24 24" fill="none" stroke="currentColor" stroke-width="2" stroke-linecap="round" stroke-linejoin="round" >
  <path d="M11 2.59999L6 5.39999C5.4 5.79999 5 6.39999 5 7.09999V16C5 16.6 5.3 17.3 5.8 17.6L10.8 21.2C11.5 21.7 12.4 21.7 13.1 21.2L18.1 17.6C18.6 17.2 18.9 16.6 18.9 16V7.19999C18.9 6.49999 18.5 5.79999 17.9 5.49999L12.9 2.59999C12.4 2.19999 11.6 2.19999 11 2.59999Z" stroke-miterlimit="10"/>
  <path d="M12 3L10 12L11.8 21.2" stroke-miterlimit="10"/>
  <path d="M18.2 16.9L10 12L18.5 7.29999" stroke-miterlimit="10"/>
  </svg>

<svg xmlns="http://www.w3.org/2000/svg" width="24" height="24" viewBox="0 0 24 24" fill="none" stroke="currentColor" stroke-width="2" stroke-linecap="round" stroke-linejoin="round">
  <path d="m12 3-2 9 1.8 9.2" />
  <path d="M18.2 16.9 10 12l8.5-4.7" />
  <path d="M6 5.4c-.6.4-1 1-1 1.7V16c0 .6.3 1.3.8 1.6l5 3.6a2 2 0 0 0 2.3 0l5-3.6c.5-.4.8-1 .8-1.6V7.2c0-.7-.4-1.4-1-1.7l-5-2.9c-.5-.4-1.3-.4-1.9 0z" />
</svg>
